packages/bezier-icons/icons/people-list.svg

<svg width="24" height="24" viewBox="0 0 24 24" fill="none" xmlns="http://www.w3.org/2000/svg">
<path fill-rule="evenodd" clip-rule="evenodd" d="M5.00018 7.00009C6.10418 7.00009 7.00018 6.10409 7.00018 5.00009C7.00018 3.89609 6.10418 3.00009 5.00018 3.00009C3.89518 3.00009 3.00018 3.89609 3.00018 5.00009C3.00018 6.10409 3.89518 7.00009 5.00018 7.00009ZM3.00018 16.0001H4.00018V20.0001C4.00018 20.5524 4.4479 21.0001 5.00018 21.0001C5.55247 21.0001 6.00018 20.5524 6.00018 20.0001V16.0001H7.00018V9.00009C7.00018 8.44781 6.55247 8.00009 6.00018 8.00009H4.00018C3.4479 8.00009 3.00018 8.44781 3.00018 9.00009V16.0001ZM10 5C10 5.55228 10.4477 6 11 6H20C20.5523 6 21 5.55228 21 5C21 4.44772 20.5523 4 20 4H11C10.4477 4 10 4.44772 10 5ZM10 12C10 12.5523 10.4477 13 11 13H20C20.5523 13 21 12.5523 21 12C21 11.4477 20.5523 11 20 11H11C10.4477 11 10 11.4477 10 12ZM11 20C10.4477 20 10 19.5523 10 19C10 18.4477 10.4477 18 11 18H20C20.5523 18 21 18.4477 21 19C21 19.5523 20.5523 20 20 20H11Z" fill="#313234"/>
</svg>

<svg xmlns="http://www.w3.org/2000/svg" width="24" height="24" fill="none" viewBox="0 0 24 24"><path fill="#313234" fill-rule="evenodd" d="M5 7A2 2 0 1 0 5 3 2 2 0 0 0 5 7m-2 9h1v4a1 1 0 1 0 2 0v-4h1V9a1 1 0 0 0-1-1H4a1 1 0 0 0-1 1zm7-11a1 1 0 0 0 1 1h9a1 1 0 1 0 0-2h-9a1 1 0 0 0-1 1m0 7a1 1 0 0 0 1 1h9a1 1 0 1 0 0-2h-9a1 1 0 0 0-1 1m1 8a1 1 0 1 1 0-2h9a1 1 0 1 1 0 2z" clip-rule="evenodd"/></svg>
